recipes/hipchat/icon.svg

<svg height="80" viewBox="0 0 80 80" width="80" xmlns="http://www.w3.org/2000/svg" xmlns:xlink="http://www.w3.org/1999/xlink"><mask id="a" fill="#fff"><path d="m0 1.58007692h79.2719231v74.11223078h-79.2719231" fill="#fff" fill-rule="evenodd"/></mask><g fill="#2d497d" fill-rule="evenodd" transform="translate(0 1)"><path d="m61.2830154 43.4420231c0-.8294616-.6749231-1.5769231-1.5769231-1.5769231-.3658461 0-.7411538.123-1.0470769.4005385-3.9927692 3.5890769-10.7893077 6.765-19.0082308 6.7870769h-.0315384c-8.2031539-.0220769-14.8041539-3.3241539-19.0082308-6.7870769-.2649231-.2176154-.7569231-.369-1.0754616-.369-.9776923 0-1.5453846.8326153-1.5485384 1.7472307 0 .7033077.4951538 1.2962308.902 1.9049231 2.3559231 3.5386154 9.6633846 9.5498462 20.6608461 9.5498462h.1734616c10.9943077 0 18.3049231-6.0112308 20.6576923-9.5498462.4068461-.6086923.902-1.4003077.902-2.1067692"/><path d="m72.2174 71.0265077c-2.8006154-1.5958462-5.4561538-4.2923846-6.6735385-7.9918462-.2396923-.7253846-.0283846-1.3088461.5298462-1.740923 8.1022308-6.2666923 13.1988461-15.3655385 13.1988461-25.4988462 0-18.8946923-17.7466923-34.21607692-39.6343846-34.21607692-21.8908461 0-39.63753843 15.32138462-39.63753843 34.21607692 0 18.9073077 17.74669233 34.2286923 39.63753843 34.2286923 2.8605385 0 5.6485385-.2617692 8.3356154-.7600769.6591539-.1198462 1.1984616.0346923 1.6368462.3027692 5.4246154 3.3304616 13.5016154 6.1247693 20.5851538 6.1247693 2.2833846 0 3.1601539-1.4476154 3.1601539-2.7659231 0-.8515385-.4604616-1.5106923-1.1385385-1.8986154m-10.6063846-3.3273077c.123.1671538.1892308.3090769.1892308.4604615 0 .2302308-.2176154.3879231-.492.3879231-1.9869231 0-8.1053847-3.2989231-11.3223077-6.0175384-.4446923-.3721539-1.0596923-.5077693-1.9364616-.3185385-2.6839231.5866154-5.5034615.902-8.4144615.902-18.2197692 0-32.98923078-12.2022308-32.98923078-27.2618462 0-15.0501538 14.76946158-27.24923073 32.98923078-27.24923073s32.9923846 12.19907693 32.9923846 27.24923073c0 8.9853077-5.2606154 16.9519231-13.3754615 21.9192308-.5424616.3311539-1.1164616.9556154-1.1164616 1.7377692 0 1.6021539 1.5012308 5.576 3.4755385 8.1905385" mask="url(#a)"/></g></svg>

<?xml version="1.0" encoding="UTF-8" standalone="no"?>
<svg width="80px" height="80px" viewBox="0 0 80 80" version="1.1" xmlns="http://www.w3.org/2000/svg" xmlns:xlink="http://www.w3.org/1999/xlink">
    <!-- Generator: Sketch 3.7.2 (28276) - http://www.bohemiancoding.com/sketch -->
    <title>hipchat</title>
    <desc>Created with Sketch.</desc>
    <defs>
        <polyline id="path-1" points="0 1.58007692 79.2719231 1.58007692 79.2719231 75.6923077 0 75.6923077"></polyline>
    </defs>
    <g id="icons" stroke="none" stroke-width="1" fill="none" fill-rule="evenodd">
        <g id="hipchat">
            <g id="Page-1" transform="translate(0.000000, 1.000000)">
                <path d="M61.2830154,43.4420231 C61.2830154,42.6125615 60.6080923,41.8651 59.7060923,41.8651 C59.3402462,41.8651 58.9649385,41.9881 58.6590154,42.2656385 C54.6662462,45.8547154 47.8697077,49.0306385 39.6507846,49.0527154 L39.6192462,49.0527154 C31.4160923,49.0306385 24.8150923,45.7285615 20.6110154,42.2656385 C20.3460923,42.0480231 19.8540923,41.8966385 19.5355538,41.8966385 C18.5578615,41.8966385 17.9901692,42.7292538 17.9870154,43.6438692 C17.9870154,44.3471769 18.4821692,44.9401 18.8890154,45.5487923 C21.2449385,49.0874077 28.5524,55.0986385 39.5498615,55.0986385 L39.7233231,55.0986385 C50.7176308,55.0986385 58.0282462,49.0874077 60.3810154,45.5487923 C60.7878615,44.9401 61.2830154,44.1484846 61.2830154,43.4420231" id="Fill-1" fill="#2D497D"></path>
                <g id="Group-5">
                    <mask id="mask-2" fill="white">
                        <use xlink:href="#path-1"></use>
                    </mask>
                    <g id="Clip-4"></g>
                    <path d="M72.2174,71.0265077 C69.4167846,69.4306615 66.7612462,66.7341231 65.5438615,63.0346615 C65.3041692,62.3092769 65.5154769,61.7258154 66.0737077,61.2937385 C74.1759385,55.0270462 79.2725538,45.9282 79.2725538,35.7948923 C79.2725538,16.9002 61.5258615,1.57881538 39.6381692,1.57881538 C17.7473231,1.57881538 0.000630769231,16.9002 0.000630769231,35.7948923 C0.000630769231,54.7022 17.7473231,70.0235846 39.6381692,70.0235846 C42.4987077,70.0235846 45.2867077,69.7618154 47.9737846,69.2635077 C48.6329385,69.1436615 49.1722462,69.2982 49.6106308,69.5662769 C55.0352462,72.8967385 63.1122462,75.6910462 70.1957846,75.6910462 C72.4791692,75.6910462 73.3559385,74.2434308 73.3559385,72.9251231 C73.3559385,72.0735846 72.8954769,71.4144308 72.2174,71.0265077 M61.6110154,67.6992 C61.7340154,67.8663538 61.8002462,68.0082769 61.8002462,68.1596615 C61.8002462,68.3898923 61.5826308,68.5475846 61.3082462,68.5475846 C59.3213231,68.5475846 53.2028615,65.2486615 49.9859385,62.5300462 C49.5412462,62.1578923 48.9262462,62.0222769 48.0494769,62.2115077 C45.3655538,62.7981231 42.5460154,63.1135077 39.6350154,63.1135077 C21.4152462,63.1135077 6.64578462,50.9112769 6.64578462,35.8516615 C6.64578462,20.8015077 21.4152462,8.60243077 39.6350154,8.60243077 C57.8547846,8.60243077 72.6274,20.8015077 72.6274,35.8516615 C72.6274,44.8369692 67.3667846,52.8035846 59.2519385,57.7708923 C58.7094769,58.1020462 58.1354769,58.7265077 58.1354769,59.5086615 C58.1354769,61.1108154 59.6367077,65.0846615 61.6110154,67.6992" id="Fill-3" fill="#2D497D" mask="url(#mask-2)"></path>
                </g>
            </g>
        </g>
    </g>
</svg>
